public/logo.svg

<?xml version="1.0" encoding="UTF-8"?>
<svg id="Layer_2" data-name="Layer 2" xmlns="http://www.w3.org/2000/svg" viewBox="0 0 800 800">
  <g id="icon">
    <path d="m400,0C179.09,0,0,179.09,0,400s179.09,400,400,400,400-179.09,400-400S620.91,0,400,0Zm0,526.32c-69.76,0-126.32-56.55-126.32-126.32s56.55-126.32,126.32-126.32,126.32,56.55,126.32,126.32-56.55,126.32-126.32,126.32Z" fill="#d8d8da"/>
    <path d="m442.1,294.74h343.87c-28.02-102.98-96.12-189.43-186.54-241.54l-241.54,241.54h84.21Z" fill="#d4b6e6"/>
    <path d="m357.9,294.74l241.54-241.54C540.73,19.36,472.63,0,400,0c-36.44,0-71.72,4.9-105.26,14.03v343.87l63.16-63.16Z" fill="#ebafd1"/>
    <path d="m294.74,357.9V14.03C191.76,42.05,105.3,110.15,53.2,200.56l241.54,241.54v-84.21h0Z" fill="#e07188"/>
    <g>
      <polygon points="294.74 357.9 357.9 294.74 442.1 294.74 442.1 294.74 357.9 294.74 294.74 357.9" fill="#d8d8da"/>
      <polygon points="357.9 505.26 294.74 442.1 357.9 505.26 442.1 505.26 505.26 442.1 442.1 505.26 357.9 505.26" fill="#d8d8da"/>
    </g>
    <path d="m785.97,294.74h-343.87s1.5,0,1.5,0l61.66,63.16,241.54,241.54c33.84-58.71,53.2-126.81,53.2-199.44,0-36.44-4.9-71.72-14.03-105.26Z" fill="#b4d8f1"/>
    <path d="m505.26,442.1v343.87c102.98-28.02,189.43-96.12,241.54-186.53l-241.54-241.54v84.21Z" fill="#acfff4"/>
    <path d="m442.1,505.26l-241.54,241.54c58.7,33.83,126.81,53.19,199.44,53.19,36.44,0,71.72-4.9,105.26-14.03v-343.87l-63.16,63.16Z" fill="#95d5a7"/>
    <path d="m357.9,505.26H14.02c28.02,102.98,96.12,189.43,186.54,241.54l241.54-241.54h-84.21Z" fill="#f8e99b"/>
    <path d="m294.74,442.1L53.2,200.56C19.36,259.27,0,327.37,0,400c0,36.44,4.9,71.72,14.02,105.26h343.87l-63.16-63.16Z" fill="#efc27b"/>
    <polygon points="443.6 294.74 442.1 294.74 505.26 357.9 443.6 294.74" fill="#d8d8da"/>
    <path d="m785.97,294.74c-28.02-102.98-96.12-189.43-186.54-241.54l-199.44,199.44v42.1h385.97Z" fill="#b681d5"/>
    <path d="m599.44,53.19C540.73,19.36,472.63,0,400,0v252.63l199.44-199.44Z" fill="#e592bf"/>
    <path d="m400,547.37v252.63c36.44,0,71.72-4.9,105.26-14.03v-343.87l-63.16,63.16-42.1,42.11Z" fill="#80cb93"/>
    <polygon points="442.1 505.26 400 505.26 400 547.37 442.1 505.26" fill="#f6e27d"/>
  </g>
</svg>

<?xml version="1.0" encoding="utf-8"?>
<!-- Generator: Adobe Illustrator 27.3.1, SVG Export Plug-In . SVG Version: 6.00 Build 0)  -->
<svg version="1.1" id="Layer_2_00000091728146486621050280000013515396519052727450_"
	 xmlns="http://www.w3.org/2000/svg" xmlns:xlink="http://www.w3.org/1999/xlink" x="0px" y="0px" viewBox="0 0 800 800"
	 style="enable-background:new 0 0 800 800;" xml:space="preserve">
<style type="text/css">
	.st0{fill:#B4DFE4;}
	.st1{fill:#90CFD6;}
	.st2{fill:#35A7B5;}
	.st3{fill:#A6D8DE;}
	.st4{fill:#CDE9ED;}
	.st5{fill:#82C9D1;}
	.st6{fill:#96D1D9;}
	.st7{fill:#3FACB9;}
	.st8{fill:#68BDC8;}
	.st9{fill:#66BCC7;}
	.st10{fill:#BEE3E7;}
</style>
<g id="icon">
	<path class="st0" d="M400,0C179.1,0,0,179.1,0,400s179.1,400,400,400s400-179.1,400-400S620.9,0,400,0z M400,526.3
		c-69.8,0-126.3-56.5-126.3-126.3S330.2,273.7,400,273.7S526.3,330.2,526.3,400S469.8,526.3,400,526.3z"/>
	<path class="st1" d="M442.1,294.7H786c-28-103-96.1-189.4-186.5-241.5L357.9,294.7H442.1z"/>
	<path class="st1" d="M357.9,294.7L599.4,53.2C540.7,19.4,472.6,0,400,0c-36.4,0-71.7,4.9-105.3,14v343.9L357.9,294.7z"/>
	<path class="st2" d="M294.7,357.9V14c-103,28-189.4,96.1-241.5,186.5l241.5,241.5V357.9L294.7,357.9L294.7,357.9z"/>
	<g>
		<polygon class="st0" points="294.7,357.9 357.9,294.7 442.1,294.7 442.1,294.7 357.9,294.7 		"/>
		<polygon class="st0" points="357.9,505.3 294.7,442.1 357.9,505.3 442.1,505.3 505.3,442.1 442.1,505.3 		"/>
	</g>
	<path class="st3" d="M786,294.7H442.1h1.5l61.7,63.2l241.5,241.5C780.6,540.7,800,472.6,800,400C800,363.6,795.1,328.3,786,294.7z"
		/>
	<path class="st4" d="M505.3,442.1V786c103-28,189.4-96.1,241.5-186.5L505.3,357.9V442.1L505.3,442.1z"/>
	<path class="st5" d="M442.1,505.3L200.6,746.8C259.3,780.6,327.4,800,400,800c36.4,0,71.7-4.9,105.3-14V442.1L442.1,505.3
		L442.1,505.3z"/>
	<path class="st4" d="M357.9,505.3H14c28,103,96.1,189.4,186.5,241.5l241.5-241.5H357.9L357.9,505.3z"/>
	<path class="st6" d="M294.7,442.1L53.2,200.6C19.4,259.3,0,327.4,0,400c0,36.4,4.9,71.7,14,105.3h343.9L294.7,442.1L294.7,442.1z"
		/>
	<polygon class="st0" points="443.6,294.7 442.1,294.7 505.3,357.9 	"/>
	<path class="st7" d="M786,294.7c-28-103-96.1-189.4-186.5-241.5L400,252.6v42.1H786L786,294.7z"/>
	<path class="st8" d="M599.4,53.2C540.7,19.4,472.6,0,400,0v252.6C400,252.6,599.4,53.2,599.4,53.2z"/>
	<path class="st9" d="M400,547.4V800c36.4,0,71.7-4.9,105.3-14V442.1l-63.2,63.2L400,547.4z"/>
	<polygon class="st10" points="442.1,505.3 400,505.3 400,547.4 	"/>
</g>
</svg>
